!!!!SEGMENT: pl-kk--kk-i-2--005-001_anonim--missa-ii-brevis-ad-imitationem-missae-sine-nomine-kyrie.krn
!!!cenid: 16xx:1598
!!!COM: Anonim
!!!COM-rismID: pe30004985
!!!CDT:
!!!CNT:
!!!OPR: Missa II brevis ad imitationem missae Sine nomine
!!!OTL: Kyrie
!!!OMV: 001
!!!PDT:
!!!AGN: Sacred; Mass
!!!SMS-siglum: PL-Kk
!!!SMS-shelfmark: Kk.I.2
!!!SMS-shelfwork: 005-001 M
!!!SMS-variant:
!!!SMS-altvar:
!!!NIFC-rismSourceID: 300258021
!!!NIFC-islandoraID: pl-kk:750
!!!URL-pdf-islandora: https://repozytorium.nifc.pl/islandora/object/pl-kk%3A750/datastream/PDF/view
!!!URL-scan: https://polish.musicsources.pl/pl/lokalizacje/galeria/rekopisy/5828 @EN{Scan on Polish Music Herritage in Open Access Website} @PL{Skany w portalu Dziedzictwo Muzyki Polskiej w otwartym dostępie}
!!!ONB-nifc: Części mszy: Kyrie, Gloria, Credo, Sanctus, Agnus Dei; skany: C: 0011; A: 0111; T: 0214; B: 0314;
!!!AIN: 1 alto 1 bass 1 soprn 1 tenor
!!!key: a:phr
**kern	**text	**kern	**text	**kern	**text	**kern	**text
*part4	*part4	*part3	*part3	*part2	*part2	*part1	*part1
*staff4	*staff4	*staff3	*staff3	*staff2	*staff2	*staff1	*staff1
*I"BASVS	*	*I"TENOR	*	*I"ALTVS	*	*I"DISCANTVS	*
*I'B	*	*I'T	*	*I'A	*	*I'S	*
*Ibass	*	*Itenor	*	*Ialto	*	*Isoprn	*
*ICvox	*	*ICvox	*	*ICvox	*	*ICvox	*
*clefF4	*	*clefC4	*	*clefC4	*	*clefC1	*
*k[]	*	*k[]	*	*k[]	*	*k[]	*
*a:phr	*	*a:phr	*	*a:phr	*	*a:phr	*
*M2/1	*	*M2/1	*	*M2/1	*	*M2/1	*
*met(C|)	*	*met(C|)	*	*met(C|)	*	*met(C|)	*
=1-	=1-	=1-	=1-	=1-	=1-	=1-	=1-
!LO:TX:t=P:problem=kreska pseudotaktowa	!	!	!	!LO:TX:a:t=2	!	!	!
!	!	!	!	!LO:TX:t=P:problem=kreska pseudotaktowa	!	!	!
1r	.	1E	Ky-	0r	.	00r	.
!	!	!LO:TX:t=P:problem=kreska pseudotaktowa	!	!	!	!	!
1E	Ky-	1E	-rie	.	.	.	.
=2-	=2-	=2-	=2-	=2-	=2-	=2-	=2-
2E/	-ri-	2.G/	.	1E	Ky-	.	.
!LO:TX:t=P::problem=kreska pseudotaktowa&colon;między nutą a kropką	!	!	!	!	!	!	!
2.G\	-e	.	.	.	.	.	.
.	.	4A/	.	.	.	.	.
.	.	2B/	.	1E	-ri-	.	.
4F/	.	.	.	.	.	.	.
4E/	.	1c\	e-	.	.	.	.
!LO:TX:t=P:problem=kreska pseudotaktowa	!	!	!	!	!	!	!
4D/	.	.	.	.	.	.	.
=3-	=3-	=3-	=3-	=3-	=3-	=3-	=3-
4C/	.	.	.	2.G/	-e	0r	.
4BB/	.	.	.	.	.	.	.
2.E/	.	4B/	.	.	.	.	.
!	!	!LO:TX:t=P:problem=kreska pseudotaktowa	!	!LO:TX:t=P:problem=kreska pseudotaktowa	!	!	!
.	.	4A/	.	4A/	.	.	.
.	.	2G/	-lei-	2B/	e-	.	.
4D/	.	.	.	.	.	.	.
4C/	.	2E/	.	1c\	.	.	.
!LO:TX:t=P:problem=kreska pseudotaktowa	!	!	!	!	!	!	!
4BB/	.	.	.	.	.	.	.
=4-	=4-	=4-	=4-	=4-	=4-	=4-	=4-
!	!	!	!	!	!	!LO:TX:t=P:problem=kreska pseudotaktowa	!
2AA/	e-	1F	.	.	.	1r	.
1A	.	.	.	4B/	.	.	.
!	!	!	!	!LO:TX:t=P:problem=kreska pseudotaktowa	!	!	!
.	.	.	.	4A/	.	.	.
!	!	!LO:TX:t=P:problem=kreska pseudotaktowa	!	!	!	!	!
.	.	1E	-son	2c\	.	1e	Ky-
2G\	-lei-	.	.	2B\	.	.	.
=5-	=5-	=5-	=5-	=5-	=5-	=5-	=5-
1A	-ſon	1r	.	2c\	.	1e	-ri-
!	!	!	!	!LO:TX:t=P:problem=kreska pseudotaktowa	!	!	!
.	.	.	.	2A/	.	.	.
!LO:TX:t=P:problem=kreska pseudotaktowa	!	!	!	!	!	!	!
1E	.	2r	.	2B/	-lei-	2.g/	-e
!	!	!LO:TX:t=P:problem=kreska pseudotaktowa	!	!	!	!	!
.	.	2E/	Ky-	2e\	-son	.	.
.	.	.	.	.	.	4a/	.
=6-	=6-	=6-	=6-	=6-	=6-	=6-	=6-
0r	.	2.E/	-ri-	2e,\	.	4b\	.
.	.	.	.	.	.	4g/	.
!	!	!	!	!LO:TX:t=P:problem=kreska pseudotaktowa	!	!LO:TX:t=P:problem=kreska pseudotaktowa	!
.	.	.	.	2e\	e-	2cc\	.
.	.	4F/	.	.	.	.	.
.	.	2G/	-e	4d\	-lei-	2b\	.
.	.	.	.	4c\	.	.	.
.	.	2A/	.	4c\	.	1a\	.
.	.	.	.	8B/	.	.	.
.	.	.	.	8A/	.	.	.
=7-	=7-	=7-	=7-	=7-	=7-	=7-	=7-
1E	Ky-	2E/	.	2B/	.	.	.
*	*	*custos:e	*	*custos:b	*	*	*
!	!	!LO:TX:t=P:problem=kreska pseudotaktowa	!	!LO:TX:t=P:problem=kreska pseudotaktowa	!	!	!
.	.	2e\	e-	2c/	.	4g/	.
!	!	!	!	!	!	!LO:TX:t=P:problem=kreska pseudotaktowa	!
.	.	.	.	.	.	4f/	.
!	!	!LO:LB:g=original	!	!LO:LB:g=original	!	!	!
2.E/	-ri-	2e\	.	1B	-son	2.g/	.
.	.	2e\	.	.	.	.	.
*custos:G	*	*	*	*	*	*	*
!LO:TX:t=P:problem=kreska pseudotaktowa	!	!	!	!	!	!	!
4F/	.	.	.	.	.	4a/	.
=8-	=8-	=8-	=8-	=8-	=8-	=8-	=8-
!LO:LB:g=original	!	!	!	!	!	!	!
2G\	-e-	2d\	.	2r	.	4b\	.
.	.	.	.	.	.	4g/	.
!	!	!LO:TX:t=P:problem=kreska pseudotaktowa	!	!LO:TX:t=P:problem=kreska pseudotaktowa	!	!LO:TX:t=P:problem=kreska pseudotaktowa	!
2A\	.	2c\	-lei-	2e\	Ky-	2cc\	.
2D/	-lei-	4d\	.	2f\	-ri-	2b\	.
.	.	4c\	.	.	.	.	.
2F/	.	4B\	.	2d\	-e	1a\	.
.	.	4A\	.	.	.	.	.
=9-	=9-	=9-	=9-	=9-	=9-	=9-	=9-
!LO:TX:t=P:problem=kreska pseudotaktowa	!	!	!	!	!	!	!
1E	.	1B	.	1e	lei-	.	.
.	.	.	.	.	.	2g/	.
!	!	!LO:TX:t=P:problem=kreska pseudotaktowa	!	!LO:TX:t=P:problem=kreska pseudotaktowa	!	!LO:TX:t=P:problem=kreska pseudotaktowa	!
2AA,</	-son	0.A	-son	0c	-ſon	1a	.
2AA/	Ky-	.	.	.	.	.	.
=10-	=10-	=10-	=10-	=10-	=10-	=10-	=10-
*	*	*	*	*	*	*custos:e	*
2.AA/	-ri-	.	.	.	.	2r	.
!	!	!	!	!	!	!LO:TX:t=P:problem=kreska pseudotaktowa	!
!	!	!	!	!	!	!LO:LB:g=original	!
.	.	.	.	.	.	2e/	.
!LO:TX:t=P:problem=kreska pseudotaktowa	!	!	!	!	!	!	!
4BB/	-e	.	.	.	.	.	.
2C/	e-	.	.	2r	.	2e/	.
2D/	.	.	.	2A/	Ky-	2f/	.
=11-	=11-	=11-	=11-	=11-	=11-	=11-	=11-
2.AA/	.	2r	.	4A/	-ri-	2e/	.
.	.	.	.	4B/	-e	.	.
!	!	!	!	!LO:TX:t=P:problem=kreska pseudotaktowa	!	!LO:TX:t=P:problem=kreska pseudotaktowa	!
.	.	2E/	e-	2.c\	.	2cc\	.
4BB/	.	.	.	.	.	.	.
2C/	.	2.E/	-ley-	.	.	2g/	.
.	.	.	.	4d\	.	.	.
!LO:TX:t=P:problem=kreska pseudotaktowa	!	!	!	!	!	!	!
2AA/	.	.	.	2.e\	.	2cc\	e-
!	!	!LO:TX:t=P:problem=kreska pseudotaktowa	!	!	!	!	!
.	.	4F/	-ſon	.	.	.	.
=12-	=12-	=12-	=12-	=12-	=12-	=12-	=12-
2E\	-ley-	2G/	.	.	.	2b\	-ley-
.	.	.	.	4c\	.	.	.
2F\	.	2A/	.	2d\	e-	1a	-ſon
1E	-ſon	1B	.	1e	-ley-	.	.
.	.	.	.	.	.	2g/	.
=13-	=13-	=13-	=13-	=13-	=13-	=13-	=13-
0AAl;>	.	0Al;>	.	0el;>	-ſon	0a;>	.
=14||-	=14||-	=14||-	=14||-	=14||-	=14||-	=14||-	=14||-
*M2\1	*	*M2\1	*	*M2\1	*	*M2\1	*
*met(C|)	*	*met(C|)	*	*met(C|)	*	*met(C|)	*
!LO:TX:a:t=7.	!	!LO:TX:a:t=5.	!	!	!	!	!
00r	.	00r	.	2.c\	Chri-	1cc	Chri-
.	.	.	.	4d\	-ſte	.	.
.	.	.	.	4e\	.	2.cc\	-ſte
.	.	.	.	4c/	.	.	.
.	.	.	.	1f\	.	.	.
!	!	!	!	!	!	!LO:TX:t=P:problem=kreska pseudotaktowa	!
.	.	.	.	.	.	4b\	.
=15-	=15-	=15-	=15-	=15-	=15-	=15-	=15-
.	.	.	.	.	.	4cc\	.
.	.	.	.	.	.	4a\	.
!	!	!	!	!LO:TX:t=P:problem=kreska pseudotaktowa	!	!	!
.	.	.	.	2d\	.	2b\	.
.	.	.	.	2f\	.	2a\	.
.	.	.	.	2e\	.	2.cc\	.
=16-	=16-	=16-	=16-	=16-	=16-	=16-	=16-
!	!	!LO:TX:t=P:problem=kreska pseudotaktowa	!	!	!	!	!
0r	.	1r	.	2A/	.	.	.
.	.	.	.	.	.	4b\	.
.	.	.	.	2c\	.	2.a/	.
.	.	2r	.	2d\	.	.	.
.	.	.	.	.	.	4g/	.
.	.	2G/	Chri-	1e\	.	4f/	.
!	!	!	!	!	!	!LO:TX:t=P:problem=kreska pseudotaktowa	!
.	.	.	.	.	.	4e/	.
=17-	=17-	=17-	=17-	=17-	=17-	=17-	=17-
!LO:TX:t=P:problem=kreska pseudotaktowa	!	!	!	!	!	!	!
1r	.	2A/	-ste	.	.	1f	.
*	*	*	*	*custos:e	*	*	*
!	!	!LO:TX:t=P:problem=kreska pseudotaktowa	!	!LO:TX:t=P:problem=kreska pseudotaktowa	!	!	!
.	.	2B/	.	2d\	.	.	.
!	!	!	!	!LO:LB:g=original	!	!	!
1C	Chri-	2.c\	.	2e\	e-	2e/	.
.	.	.	.	2.c\	-lei-	2g/	.
.	.	4B/	.	.	.	.	.
=18-	=18-	=18-	=18-	=18-	=18-	=18-	=18-
2D/	.	2A/	e-	.	.	2f/	.
.	.	.	.	4B/	.	.	.
*	*	*custos:A	*	*	*	*	*
!	!	!LO:TX:t=P:problem=kreska pseudotaktowa	!	!	!	!	!
2E/	-ſte	2G/	.	2.B/	.	1e	.
*lig	*	*lig	*	*	*	*	*
!	!	!LO:LB:g=original	!	!	!	!	!
1F	.	1A	-lei-	.	.	.	.
.	.	.	.	4A/	.	.	.
*	*	*	*	*	*	*custos:e	*
!	!	!	!	!	!	!LO:TX:t=P:problem=kreska pseudotaktowa	!
.	.	.	.	1A\	.	2d/	.
=19-	=19-	=19-	=19-	=19-	=19-	=19-	=19-
!	!	!	!	!	!	!LO:TX:t=P:problem=kreska pseudotaktowa	!
!	!	!	!	!	!	!LO:LB:g=original	!
1E	.	1B	.	.	.	0e	.
.	.	.	.	2G/	.	.	.
*Xlig	*	*Xlig	*	*lig	*	*	*
!	!	!LO:TX:t=P:problem=kreska pseudotaktowa	!	!	!	!	!
2AA/	.	1A	-son	1A	-son	.	.
1A\	.	.	.	.	.	.	.
=20-	=20-	=20-	=20-	=20-	=20-	=20-	=20-
!	!	!	!	!LO:TX:t=P:problem=kreska pseudotaktowa	!	!	!
.	.	0r	.	1E	.	2r	.
*custos:F	*	*	*	*	*	*	*
!LO:TX:t=P:problem=kreska pseudotaktowa	!	!	!	!	!	!	!
2G\	.	.	.	.	.	2g/	.
!LO:LB:g=original	!	!	!	!	!	!	!
*	*	*	*	*Xlig	*	*	*
2F\	.	.	.	2r	.	2a/	.
!	!	!	!	!	!	!LO:TX:t=P:problem=kreska pseudotaktowa	!
4E/	.	.	.	1e\	Ky-	2b\	.
!LO:TX:t=P:problem=kreska pseudotaktowa	!	!	!	!	!	!	!
4D/	.	.	.	.	.	.	.
=21-	=21-	=21-	=21-	=21-	=21-	=21-	=21-
2C/	.	1G	X-	.	-ri-	2.cc\	.
!	!	!	!	!LO:TX:t=P:problem=kreska pseudotaktowa	!	!	!
2C/	.	.	.	2e\	-e	.	.
.	.	.	.	.	.	4b\	.
2F\	.	2A/	-te	2c\	.	2a\	.
!LO:TX:t=P:problem=kreska pseudotaktowa	!	!LO:TX:t=P:problem=kreska pseudotaktowa	!	!	!	!	!
2D/	.	2B/	.	2d\	.	4g/	.
!	!	!	!	!	!	!LO:TX:t=P:problem=kreska pseudotaktowa	!
.	.	.	.	.	.	4f/	.
=22-	=22-	=22-	=22-	=22-	=22-	=22-	=22-
*lig	*	*	*	*	*	*	*
1C	.	1c	e-	1e	.	2a/	.
.	.	.	.	.	.	1g	.
1D	.	1A	.	1d	.	.	.
.	.	.	.	.	.	2f/	.
*Xlig	*	*	*	*	*	*	*
=23-	=23-	=23-	=23-	=23-	=23-	=23-	=23-
*lig	*	*	*	*	*	*lig	*
1E	.	2G/	.	2B/	e-	1g	e-
.	.	1c	.	1e	-ley-	.	.
1F	.	.	.	.	.	1a	-ley-
.	.	4B/	.	2d\	.	.	.
!	!	!LO:TX:t=P:problem=kreska pseudotaktowa	!	!	!	!	!
.	.	4A/	.	.	.	.	.
*Xlig	*	*	*	*	*	*Xlig	*
=24-	=24-	=24-	=24-	=24-	=24-	=24-	=24-
1E	.	2c\	.	00el;>	-ſon	00gl;>	-ſon
.	.	2B\	-ley-	.	.	.	.
2.C/	e-	1c	-ſon.	.	.	.	.
4D/	-ley-	.	.	.	.	.	.
=25-	=25-	=25-	=25-	=25-	=25-	=25-	=25-
0El;>	-ſon	0Bl;>	.	.	.	.	.
=26||-	=26||-	=26||-	=26||-	=26||-	=26||-	=26||-	=26||-
*M2\1	*	*M2\1	*	*M2\1	*	*M2\1	*
*met(C|)	*	*met(C|)	*	*met(C|)	*	*met(C|)	*
!	!	!	!	!LO:TX:a:t=5.	!	!	!
1D	Ky-	1A	Ky-	00r	.	00r	.
*lig	*	*	*	*	*	*	*
1D	-ri-	2A/	-ri-	.	.	.	.
!	!	!LO:TX:t=P:problem=kreska pseudotaktowa	!	!	!	!	!
.	.	2B/	-e	.	.	.	.
=27-	=27-	=27-	=27-	=27-	=27-	=27-	=27-
1C	-e	2.c\	.	.	.	.	.
.	.	4B/	.	.	.	.	.
*Xlig	*	*	*	*	*	*	*
*lig	*	*	*	*	*	*	*
1D	e-	4A/	.	.	.	.	.
.	.	4G/	.	.	.	.	.
.	.	2.A/	.	.	.	.	.
=28-	=28-	=28-	=28-	=28-	=28-	=28-	=28-
!	!	!	!	!LO:TX:t=P:problem=kreska pseudotaktowa	!	!LO:TX:t=P:problem=kreska pseudotaktowa	!
1E	.	.	.	1r	.	1r	.
.	.	4F/	.	.	.	.	.
*	*	*custos:E	*	*	*	*	*
!	!	!LO:TX:t=P:problem=kreska pseudotaktowa	!	!	!	!	!
.	.	2G/	.	.	.	.	.
*Xlig	*	*	*	*	*	*	*
!	!	!LO:LB:g=original	!	!	!	!	!
2C/	-le-	2E/	.	2r	.	2r	.
1D\	-i-	1F/	.	2d\	Ky-	2a\	Ky-
=29-	=29-	=29-	=29-	=29-	=29-	=29-	=29-
.	.	.	.	2d\	-ri-	2a\	-ri-
!	!	!	!	!LO:TX:t=P:problem=kreska pseudotaktowa	!	!LO:TX:t=P:problem=kreska pseudotaktowa	!
4C/	.	4E/	.	2d\	-e	2b\	-e
!	!	!LO:TX:t=P:problem=kreska pseudotaktowa	!	!	!	!	!
4BB/	.	4D/	.	.	.	.	.
!LO:TX:t=P:problem=kreska pseudotaktowa	!	!	!	!	!	!	!
1AA	-son	1E	.	4c\	.	2.cc\	.
.	.	.	.	4d\	.	.	.
.	.	.	.	4e\	.	.	.
!	!	!	!	!LO:TX:t=P:problem=kreska pseudotaktowa	!	!	!
.	.	.	.	4c\	.	4b\	.
=30-	=30-	=30-	=30-	=30-	=30-	=30-	=30-
1r	.	2r	.	4d\	e-	4a\	.
.	.	.	.	4e\	.	4g\	.
!	!	!LO:TX:t=P:problem=kreska pseudotaktowa	!	!	!	!	!
.	.	2D/	.	2.f\	-lei-	2.a\	.
2r	.	4D/	.	.	.	.	.
.	.	4E/	.	4e\	.	4g\	.
!LO:TX:t=P:problem=kreska pseudotaktowa	!	!	!	!	!	!	!
2D/	Ky-	4F/	.	4d\	.	4f/	.
*	*	*	*	*custos:d	*	*	*
.	.	4G/	.	4c\	.	4e/	.
=31-	=31-	=31-	=31-	=31-	=31-	=31-	=31-
*	*	*	*	*	*	*custos:e	*
!	!	!	!	!LO:LB:g=original	!	!	!
!	!	!LO:TX:t=P:problem=kreska pseudotaktowa	!	!	!	!LO:TX:t=P:problem=kreska pseudotaktowa	!
4D/	-ri-	1A	.	1d	.	1f	.
4E/	.	.	.	.	.	.	.
4F\	.	.	.	.	.	.	.
*custos:A	*	*	*	*	*	*	*
4G\	.	.	.	.	.	.	.
!LO:LB:g=original	!	!	!	!LO:TX:t=P:problem=kreska pseudotaktowa	!	!LO:LB:g=original	!
2A\	-e	2r	.	1c	-son	2e/	.
2AA/	.	2A/	.	.	.	2.cc\	.
=32-	=32-	=32-	=32-	=32-	=32-	=32-	=32-
4AA/	.	1c	.	2r	.	.	.
4BB/	.	.	.	.	.	4b\	.
!	!	!	!	!	!	!LO:TX:t=P:problem=kreska pseudotaktowa	!
4C/	.	.	.	1e	Ky-	2a/	.
!LO:TX:t=P:problem=kreska pseudotaktowa	!	!	!	!	!	!	!
4D/	.	.	.	.	.	.	.
2E/	.	2B/	.	.	.	2g/	.
!	!	!LO:TX:t=P:problem=kreska pseudotaktowa	!	!	!	!	!
2F/	.	2A/	.	2d\	-ri-	1a\	.
=33-	=33-	=33-	=33-	=33-	=33-	=33-	=33-
!	!	!	!	!LO:TX:t=P:problem=kreska pseudotaktowa	!	!	!
2.E/	.	1B	.	1e	-e	.	.
.	.	.	.	.	.	2g/	.
4D/	.	.	.	.	.	.	.
!	!	!	!	!	!	!LO:TX:t=P:problem=kreska pseudotaktowa	!
2C/	.	2A/	.	2r	.	1a	.
*	*	*	*	*	*ij	*	*
!LO:TX:t=P:problem=kreska pseudotaktowa	!	!LO:TX:t=P:problem=kreska pseudotaktowa	!	!	!	!	!
2D/	.	2D/	.	2A/	Ky-	.	.
=34-	=34-	=34-	=34-	=34-	=34-	=34-	=34-
1BBn	.	4D/	.	2d\	-ri-	2r	.
.	.	4E/	.	.	.	.	.
!	!	!	!	!LO:TX:t=P:problem=kreska pseudotaktowa	!	!	!
.	.	4F/	.	2d\	-e	4d/	.
*	*	*	*	*	*Xij	*	*
.	.	4G/	.	.	.	4e/	.
2AA/	.	4A/	.	2c\	e-	4f/	.
.	.	4B/	.	.	.	4g/	.
!	!	!LO:TX:t=P:problem=kreska pseudotaktowa	!	!	!	!LO:TX:t=P:problem=kreska pseudotaktowa	!
2AA/	.	2c\	.	1e\	.	2a\	.
=35-	=35-	=35-	=35-	=35-	=35-	=35-	=35-
2E\	.	2B\	.	.	.	2g/	e-
2F\	e-	2A\	e-	2d\	-ley-	1a	-ley-
1E	-ley-	1B	-ley-	1e	-ſon	.	.
.	.	.	.	.	.	2g/	.
=36-	=36-	=36-	=36-	=36-	=36-	=36-	=36-
0AAl;>	-ſon	0Al;>	-ſon	0cl;>	.	0al;>	-ſon
=-	=-	=-	=-	=-	=-	=-	=-
*-	*-	*-	*-	*-	*-	*-	*-
!!!system-decoration: [(s1,s2,s3,s4)]
!!!RDF**kern: l = terminal long
!!!ENC: Andrzej Gręziak
!!!END: 2022-01-04
!!!ENC: Marta Chmielewska
!!!END: 2022-01-05
